public/magnacare_logo.svg

<svg width="235" height="27" viewBox="0 0 235 27" fill="none" xmlns="http://www.w3.org/2000/svg">
<g id="Group 1">
<path id="Vector" d="M219.829 14.9359H209.518V11.5785H219.796L219.829 14.9359Z" fill="#E5F2F8"/>
<path id="Vector_2" d="M222.516 4.09361H209.768L208.522 0.73291H222.516V4.09361Z" fill="#E5F2F8"/>
<path id="Vector_3" d="M222.516 25.7522H209.768L208.522 22.3915H222.516V25.7522Z" fill="#E5F2F8"/>
<path id="Vector_4" d="M195.641 16.8773L201.772 25.7522H197.23L191.239 17.5038" fill="#E5F2F8"/>
<path id="Vector_5" d="M190.881 17.0175L192.679 19.4809L196.983 18.8153L195.156 16.179L190.881 17.0175Z" fill="#E5F2F8"/>
<path id="Vector_6" d="M191.266 17.4809H185.305V13.8233H191.504C194.548 13.8233 196.757 12.3224 196.757 9.15423C196.757 5.98604 194.591 4.40031 191.253 4.40031H185.305V0.73291H191.478C197.351 0.73291 201.067 3.9011 201.067 9.11182C201.067 12.9913 198.982 15.6179 195.772 16.8251C194.33 17.3482 192.797 17.5703 191.266 17.4777" fill="#E5F2F8"/>
<path id="Vector_7" d="M76.8068 14.0746C76.8068 21.4975 72.5129 26.3329 65.3412 26.3329C57.5855 26.3329 52.874 20.4958 52.874 13.2817C52.874 5.98604 57.7682 0.191284 65.4685 0.191284C71.6678 0.191284 74.389 3.39863 74.389 3.39863L71.9713 6.57009C71.9713 6.57009 69.6384 4.1034 65.4685 4.1034C60.4209 4.1034 57.1287 8.10687 57.1287 13.2752C57.1287 18.4435 60.3393 22.3752 65.3412 22.3752C69.7199 22.3752 72.4313 19.4582 72.4313 15.2459V14.5933L76.8068 14.0746Z" fill="#E5F2F8"/>
<path id="Vector_8" d="M152.183 23.2724C152.183 23.2724 149.779 26.3329 144.026 26.3329C136.355 26.3329 131.393 20.4957 131.393 13.2817C131.399 5.98601 136.352 0.187988 144.023 0.187988C149.779 0.187988 152.448 3.31376 152.448 3.31376L150.069 6.52437C148.485 4.96388 146.348 4.09353 144.124 4.10336C139.161 4.10336 135.699 8.10684 135.699 13.2751C135.699 18.4434 139.145 22.3751 144.124 22.3751C146.345 22.3944 148.486 21.5415 150.085 19.9998L152.183 23.2724Z" fill="#E5F2F8"/>
<path id="Vector_9" d="M226.161 4.42971C226.525 4.70348 226.966 4.85434 227.421 4.8604C228.021 4.8604 228.282 4.60917 228.282 4.24699C228.282 3.88482 228.073 3.73473 227.274 3.49002C226.279 3.19311 225.796 2.8603 225.796 2.16206C225.796 1.39856 226.377 0.892822 227.427 0.892822C228.533 0.892822 228.977 1.34635 228.977 1.34635L228.579 1.94671C228.248 1.69663 227.842 1.56558 227.427 1.57475C226.925 1.57475 226.605 1.77704 226.605 2.13269C226.605 2.43613 226.843 2.58622 227.584 2.80809C228.661 3.11154 229.091 3.50307 229.091 4.19479C229.091 4.9485 228.55 5.54233 227.437 5.54233C226.826 5.57759 226.224 5.37932 225.753 4.98765L226.161 4.42971Z" fill="#E5F2F8"/>
<path id="Vector_10" d="M233.451 2.34803L232.168 4.02512H231.894L230.619 2.37087V5.4477H229.888V1.00049H230.449L232.028 3.07564L233.617 1.00049H234.178V5.4477H233.451V2.34803Z" fill="#E5F2F8"/>
<path id="Vector_11" d="M158.445 24.8157L158.426 24.8189L158.063 25.7521H158.08L158.445 24.8157Z" fill="#E5F2F8"/>
<path id="Vector_12" d="M174.048 25.7521H174.068L173.464 24.2773L174.048 25.7521Z" fill="#E5F2F8"/>
<path id="Vector_13" d="M11.9409 12.2213L14.4794 15.8626L19.9935 8.4462V0.73291L11.9409 12.2213Z" fill="#E5F2F8"/>
<path id="Vector_14" d="M11.9418 12.2213L3.88916 0.73291V8.4462L9.40332 15.8626L10.777 17.7126H13.1033L14.4803 15.8626L11.9418 12.2213Z" fill="#E5F2F8"/>
<path id="Vector_15" d="M0 0.73291V25.7522H3.88927V8.4462V0.73291H0Z" fill="#E5F2F8"/>
<path id="Vector_16" d="M19.9941 0.73291V8.4462V25.7522H23.8834V0.73291H19.9941Z" fill="#E5F2F8"/>
<path id="Vector_17" d="M3.88916 0.73291L6.03609 3.79996V11.3371L3.88916 8.4462V0.73291Z" fill="#E5F2F8"/>
<path id="Vector_18" d="M19.9935 0.73291L17.8433 3.79996V11.3371L19.9935 8.4462V0.73291Z" fill="#E5F2F8"/>
<path id="Vector_19" d="M11.9409 12.2213L13.295 10.2897L16.0194 13.7939L14.4794 15.8626L11.9409 12.2213Z" fill="#E5F2F8"/>
<path id="Vector_20" d="M72.2871 14.1659C72.2871 14.1659 72.6688 15.1969 72.2349 17.122H76.5092C76.729 16.1525 76.8287 15.1597 76.8061 14.1659H72.2871Z" fill="#E5F2F8"/>
<path id="Vector_21" d="M81.061 0.73291V25.7522H85.1885V13.6014V7.98941V0.73291H81.061Z" fill="#E5F2F8"/>
<path id="Vector_22" d="M85.1885 0.73291V7.98941L98.5269 25.7522V18.4076L85.1885 0.73291Z" fill="#E5F2F8"/>
<path id="Vector_23" d="M98.5301 0.73291V18.4108L98.5269 18.4076V25.7522H102.661V0.73291H98.5301Z" fill="#E5F2F8"/>
<path id="Vector_24" d="M85.1885 0.73291V7.98941L86.8264 10.169V2.90268L85.1885 0.73291Z" fill="#E5F2F8"/>
<path id="Vector_25" d="M131.547 11.0858C131.547 11.0858 134.186 17.4972 136.565 17.4972C136.565 17.4972 138.017 20.9917 141.339 21.9216C144.66 22.8515 147.796 22.2707 150.07 19.9966C150.07 19.9966 150.579 21.6965 148.194 22.6884C145.809 23.6803 141.763 24.3687 139.329 23.4715C136.895 22.5742 133.217 18.0487 132.594 16.4662C131.971 14.8837 131.485 11.4904 131.547 11.0858Z" fill="#E5F2F8"/>
<path id="Vector_26" d="M150.069 19.9966C147.158 22.7471 144.072 23.0277 141.481 22.4078C141.285 22.3588 141.09 22.3132 140.884 22.2512L140.786 22.2251C140.109 22.0113 139.447 21.7507 138.806 21.4452L138.665 21.3767C138.427 21.2593 138.199 21.1353 137.974 21.008C137.869 20.9493 137.768 20.8938 137.673 20.8351C133.902 18.5511 132.156 14.9066 131.546 11.0858C131.451 11.8141 131.398 12.5473 131.389 13.2817C131.387 13.3186 131.387 13.3557 131.389 13.3926C131.441 20.4077 136.065 25.9838 143.364 26.3329C149.563 26.6299 152.431 23.1223 152.431 23.1223L150.069 19.9966Z" fill="#E5F2F8"/>
<path id="Vector_27" d="M185.301 4.40358V0.73291H181.174V25.7522H185.301V17.494V13.8266V4.40358Z" fill="#E5F2F8"/>
<path id="Vector_28" d="M187.461 0.73291H185.305V4.41989H187.461V0.73291Z" fill="#E5F2F8"/>
<path id="Vector_29" d="M212.344 0.73291H210.188V4.09361H212.344V0.73291Z" fill="#E5F2F8"/>
<path id="Vector_30" d="M212.344 11.5361H210.188V14.8968H212.344V11.5361Z" fill="#E5F2F8"/>
<path id="Vector_31" d="M212.344 22.3915H210.188V25.7522H212.344V22.3915Z" fill="#E5F2F8"/>
<path id="Vector_32" d="M187.461 13.8103H185.305V17.4973H187.461V13.8103Z" fill="#E5F2F8"/>
<path id="Vector_33" d="M174.868 14.9587L174.616 16.5477L173.941 14.9587H174.868Z" fill="#E5F2F8"/>
<path id="Vector_34" d="M159.045 24.8157L159.022 24.8189L158.66 25.7521H158.676L159.045 24.8157Z" fill="#E5F2F8"/>
<path id="Vector_35" d="M174.645 25.7521H174.668L174.064 24.2773L174.645 25.7521Z" fill="#E5F2F8"/>
<path id="Vector_36" d="M167.336 8.10366L166.318 5.5293L167.336 8.10366Z" fill="#E5F2F8"/>
<path id="Vector_37" d="M169.189 3.46715L168.028 0.73291L169.189 3.46715Z" fill="#E5F2F8"/>
<path id="Vector_38" d="M169.189 3.46715L168.028 0.73291L166.318 5.52925L167.336 8.10361L173.738 24.2774L174.341 25.7522H178.658L169.189 3.46715Z" fill="#E5F2F8"/>
<path id="Vector_39" d="M174.075 14.9587L174.982 17.1416L171.057 17.5233L170.042 14.9587H174.075Z" fill="#E5F2F8"/>
<path id="Vector_40" d="M174.866 14.9587H158.415L159.779 11.598H173.44L174.866 14.9587Z" fill="#E5F2F8"/>
<path id="Vector_41" d="M166.319 5.52925L168.029 0.73291H164.234L153.976 25.7522H158.338L166.319 5.52925Z" fill="#E5F2F8"/>
<path id="Vector_42" d="M127.201 14.9587L126.949 16.5477L126.274 14.9587H127.201Z" fill="#E5F2F8"/>
<path id="Vector_43" d="M119.67 8.10366L118.649 5.5293L119.67 8.10366Z" fill="#E5F2F8"/>
<path id="Vector_44" d="M121.524 3.46715L120.362 0.73291L121.524 3.46715Z" fill="#E5F2F8"/>
<path id="Vector_45" d="M121.523 3.46715L120.362 0.73291L118.649 5.52925L119.67 8.10361L126.072 24.2774L126.675 25.7522H130.992L121.523 3.46715Z" fill="#E5F2F8"/>
<path id="Vector_46" d="M126.405 14.9587L127.312 17.1416L123.39 17.5233L122.375 14.9587H126.405Z" fill="#E5F2F8"/>
<path id="Vector_47" d="M127.202 14.9587H110.75L112.111 11.598H125.772L127.202 14.9587Z" fill="#E5F2F8"/>
<path id="Vector_48" d="M118.649 5.52925L120.362 0.73291H116.564L106.306 25.7522H110.671L118.649 5.52925Z" fill="#E5F2F8"/>
<path id="Vector_49" d="M48.371 14.9587L48.1197 16.5477L47.4443 14.9587H48.371Z" fill="#E5F2F8"/>
<path id="Vector_50" d="M40.8408 8.10366L39.8228 5.5293L40.8408 8.10366Z" fill="#E5F2F8"/>
<path id="Vector_51" d="M42.6928 3.46715L41.5312 0.73291L42.6928 3.46715Z" fill="#E5F2F8"/>
<path id="Vector_52" d="M42.694 3.46715L41.5325 0.73291L39.8228 5.52925L40.8408 8.10361L47.2424 24.2774L47.846 25.7522H52.1627L42.694 3.46715Z" fill="#E5F2F8"/>
<path id="Vector_53" fill-rule="evenodd" clip-rule="evenodd" d="M41.5325 0.73291L42.694 3.46715L40.8408 8.10361L39.8228 5.52925L41.5325 0.73291Z" fill="#E5F2F8"/>
<path id="Vector_54" fill-rule="evenodd" clip-rule="evenodd" d="M120.362 0.73291L121.523 3.46715L119.67 8.10361L118.649 5.52925L120.362 0.73291Z" fill="#E5F2F8"/>
<path id="Vector_55" fill-rule="evenodd" clip-rule="evenodd" d="M168.028 0.73291L169.189 3.46715L167.336 8.10361L166.318 5.52925L168.028 0.73291Z" fill="#E5F2F8"/>
<path id="Vector_56" d="M47.5778 14.9587L48.4848 17.1416L44.5597 17.5233L43.5449 14.9587H47.5778Z" fill="#E5F2F8"/>
<path id="Vector_57" d="M48.371 14.9587H31.9199L33.2838 11.598H46.9452L48.371 14.9587Z" fill="#E5F2F8"/>
<path id="Vector_58" d="M39.8222 5.52925L41.5319 0.73291H37.7373L27.479 25.7522H31.8414L39.8222 5.52925Z" fill="#E5F2F8"/>
<path id="Vector_59" d="M210.275 0.73291H206.151V25.7522H210.275V0.73291Z" fill="#E5F2F8"/>
<path id="Vector_60" d="M76.7947 15.1056H66.6245L65.0225 11.6079H76.8371C76.8371 11.6079 76.8436 14.7598 76.7947 15.1056Z" fill="#E5F2F8"/>
<path id="Vector_61" d="M71.2108 4.10347C71.2108 4.10347 71.71 2.42312 69.3575 1.44427C67.005 0.46543 63.7161 0.263135 61.3146 1.14736C58.9132 2.03158 54.5802 6.04158 53.9635 7.58815C53.3469 9.13473 52.8705 12.4824 52.9292 12.8935C52.9292 12.8935 55.683 8.59963 58.0323 8.59963C58.0323 8.59636 60.326 1.8456 71.2108 4.10347Z" fill="#E5F2F8"/>
<path id="Vector_62" d="M65.4646 0.187988C57.748 0.187988 52.8701 5.98274 52.8701 13.2784C54.0643 10.0547 55.5848 7.91759 57.1509 6.51458C61.1511 2.92549 65.4646 4.10663 65.4646 4.10663C69.6344 4.10663 71.9674 6.56679 71.9674 6.56679L74.3851 3.3986C74.3851 3.3986 71.69 0.187988 65.4646 0.187988Z" fill="#E5F2F8"/>
</g>
</svg>

<svg width="235" height="27" fill="none" xmlns="http://www.w3.org/2000/svg"><g fill="#E5F2F8"><path d="M219.829 14.936h-10.311v-3.357h10.278l.033 3.357zM222.516 4.094h-12.748L208.522.733h13.994v3.36zM222.516 25.752h-12.748l-1.246-3.36h13.994v3.36zM195.641 16.877l6.131 8.875h-4.542l-5.991-8.248"/><path d="m190.881 17.017 1.798 2.464 4.304-.666-1.827-2.636-4.275.838z"/><path d="M191.266 17.48h-5.961v-3.657h6.199c3.044 0 5.253-1.5 5.253-4.669 0-3.168-2.166-4.754-5.504-4.754h-5.948V.733h6.173c5.873 0 9.589 3.168 9.589 8.379 0 3.88-2.085 6.506-5.295 7.713a11.224 11.224 0 0 1-4.506.653M76.807 14.075c0 7.422-4.294 12.258-11.466 12.258-7.755 0-12.467-5.837-12.467-13.051 0-7.296 4.894-13.09 12.595-13.09 6.199 0 8.92 3.207 8.92 3.207L71.971 6.57s-2.333-2.467-6.502-2.467c-5.048 0-8.34 4.004-8.34 9.172 0 5.168 3.21 9.1 8.212 9.1 4.379 0 7.09-2.917 7.09-7.13v-.652l4.376-.518zM152.183 23.272s-2.404 3.06-8.157 3.06c-7.671 0-12.633-5.836-12.633-13.05.006-7.296 4.959-13.094 12.63-13.094 5.756 0 8.425 3.126 8.425 3.126l-2.379 3.21a8.418 8.418 0 0 0-5.945-2.42c-4.963 0-8.425 4.003-8.425 9.171 0 5.168 3.446 9.1 8.425 9.1A8.483 8.483 0 0 0 150.085 20l2.098 3.272zM226.161 4.43c.364.273.805.424 1.26.43.6 0 .861-.25.861-.613 0-.362-.209-.512-1.008-.757-.995-.297-1.478-.63-1.478-1.328 0-.763.581-1.27 1.631-1.27 1.106 0 1.55.454 1.55.454l-.398.6a1.844 1.844 0 0 0-1.152-.371c-.502 0-.822.202-.822.558 0 .303.238.453.979.675 1.077.304 1.507.695 1.507 1.387 0 .753-.541 1.347-1.654 1.347a2.416 2.416 0 0 1-1.684-.554l.408-.558zM233.451 2.348l-1.283 1.677h-.274l-1.275-1.654v3.077h-.731V1h.561l1.579 2.076L233.617 1h.561v4.448h-.727v-3.1zM158.445 24.816l-.019.003-.363.933h.017l.365-.936zM174.048 25.752h.02l-.604-1.475.584 1.475zM11.94 12.221l2.54 3.642 5.514-7.417V.733L11.94 12.22z"/><path d="M11.942 12.221 3.889.733v7.713l5.514 7.417 1.374 1.85h2.326l1.377-1.85-2.538-3.642z"/><path d="M0 .733v25.02h3.89V.732H0zM19.994.733V25.752h3.89V.732h-3.89zM3.89.733 6.035 3.8v7.537L3.89 8.447V.732zM19.994.733 17.844 3.8v7.537l2.15-2.89V.732zM11.94 12.221l1.355-1.931 2.724 3.504-1.54 2.069-2.538-3.642zM72.287 14.166s.382 1.03-.052 2.956h4.274c.22-.97.32-1.962.297-2.956h-4.519zM81.061.733v25.02h4.127V.732h-4.127zM85.189.733v7.256l13.338 17.763v-7.344L85.189.733zM98.53.733V18.41l-.003-.003v7.344h4.134V.732h-4.13z"/><path d="M85.189.733v7.256l1.637 2.18V2.903L85.19.733zM131.547 11.086s2.639 6.411 5.018 6.411c0 0 1.452 3.495 4.774 4.425 3.321.93 6.457.349 8.731-1.925 0 0 .509 1.7-1.876 2.691-2.385.992-6.431 1.68-8.865.784-2.434-.898-6.112-5.423-6.735-7.006-.623-1.582-1.109-4.976-1.047-5.38z"/><path d="M150.069 19.997c-2.911 2.75-5.997 3.03-8.588 2.41-.196-.048-.391-.094-.597-.156l-.098-.026a15.342 15.342 0 0 1-1.98-.78l-.141-.068a13.768 13.768 0 0 1-.691-.369c-.105-.059-.206-.114-.301-.173-3.771-2.284-5.517-5.928-6.127-9.75a18.754 18.754 0 0 0-.157 2.308c.052 7.015 4.676 12.59 11.975 12.94 6.199.297 9.067-3.21 9.067-3.21l-2.362-3.126zM185.301 4.404V.733h-4.127v25.02h4.127V4.403zM187.461.733h-2.156V4.42h2.156V.733zM212.344.733h-2.156v3.36h2.156V.734zM212.344 11.536h-2.156v3.36h2.156v-3.36zM212.344 22.392h-2.156v3.36h2.156v-3.36zM187.461 13.81h-2.156v3.687h2.156V13.81zM174.868 14.959l-.252 1.589-.675-1.59h.927zM159.045 24.816l-.023.003-.362.933h.016l.369-.936zM174.645 25.752h.023l-.604-1.475.581 1.475zM167.336 8.104l-1.018-2.575 1.018 2.575zM169.189 3.467 168.028.733l1.161 2.734z"/><path d="M169.189 3.467 168.028.733l-1.71 4.796 1.018 2.575 6.402 16.173.603 1.475h4.317l-9.469-22.285z"/><path d="m174.075 14.959.907 2.183-3.925.381-1.015-2.564h4.033zM174.866 14.959h-16.451l1.364-3.361h13.661l1.426 3.36z"/><path d="m166.319 5.53 1.71-4.797h-3.795l-10.258 25.02h4.362l7.981-20.224zM127.201 14.959l-.252 1.589-.675-1.59h.927zM119.67 8.104l-1.021-2.575 1.021 2.575zM121.524 3.467 120.362.733l1.162 2.734z"/><path d="M121.523 3.467 120.362.733l-1.713 4.796 1.021 2.575 6.402 16.173.603 1.475h4.317l-9.469-22.285z"/><path d="m126.405 14.959.907 2.183-3.922.381-1.015-2.564h4.03zM127.202 14.959H110.75l1.361-3.361h13.661l1.43 3.36z"/><path d="m118.649 5.53 1.713-4.797h-3.798l-10.258 25.02h4.365l7.978-20.224zM48.371 14.959l-.251 1.589-.676-1.59h.927zM40.84 8.104l-1.017-2.575 1.018 2.575zM42.693 3.467 41.53.733l1.162 2.734z"/><path d="M42.694 3.467 41.532.733l-1.71 4.796 1.019 2.575 6.401 16.173.604 1.475h4.317L42.694 3.467z"/><path fill-rule="evenodd" clip-rule="evenodd" d="m41.532.733 1.162 2.734-1.853 4.637-1.018-2.575 1.71-4.796zM120.362.733l1.161 2.734-1.853 4.637-1.021-2.575 1.713-4.796zM168.028.733l1.161 2.734-1.853 4.637-1.018-2.575 1.71-4.796z"/><path d="m47.578 14.959.907 2.183-3.925.381-1.015-2.564h4.033zM48.371 14.959H31.92l1.364-3.361h13.661l1.426 3.36z"/><path d="m39.822 5.53 1.71-4.797h-3.795L27.48 25.753h4.362l7.981-20.224zM210.275.733h-4.124v25.02h4.124V.732zM76.795 15.106h-10.17l-1.603-3.498h11.815s.007 3.152-.042 3.498zM71.21 4.103s.5-1.68-1.852-2.659c-2.353-.979-5.642-1.18-8.043-.297-2.402.885-6.735 4.895-7.351 6.441-.617 1.547-1.093 4.894-1.035 5.305 0 0 2.754-4.293 5.103-4.293 0-.004 2.294-6.754 13.179-4.497z"/><path d="M65.465.188c-7.717 0-12.595 5.795-12.595 13.09 1.194-3.223 2.715-5.36 4.28-6.763 4.001-3.59 8.315-2.408 8.315-2.408 4.17 0 6.502 2.46 6.502 2.46l2.418-3.168S71.69.188 65.465.188z"/></g></svg>
